console-client/ionicons/svg/male-female.svg

<svg xmlns="http://www.w3.org/2000/svg" class="ionicon" viewBox="0 0 512 512"><title>Male Female</title><path d="M426 16h-74a22 22 0 000 44h20.89l-37.1 37.09A157.68 157.68 0 00216 42c-87.12 0-158 70.88-158 158 0 79.66 59.26 145.72 136 156.46V394h-28a22 22 0 000 44h28v36a22 22 0 0044 0v-36h28a22 22 0 000-44h-28v-37.54c76.74-10.74 136-76.8 136-156.46a157.15 157.15 0 00-14-64.92l44-44V112a22 22 0 0044 0V38a22 22 0 00-22-22zM216 314a114 114 0 11114-114 114.13 114.13 0 01-114 114z"/></svg>

<svg xmlns="http://www.w3.org/2000/svg" width="512" height="512" viewBox="0 0 512 512"><title>ionicons-v5-k</title><path d="M426,16H352a22,22,0,0,0,0,44h20.89l-37.1,37.09A157.68,157.68,0,0,0,216,42C128.88,42,58,112.88,58,200c0,79.66,59.26,145.72,136,156.46V394H166a22,22,0,0,0,0,44h28v36a22,22,0,0,0,44,0V438h28a22,22,0,0,0,0-44H238V356.46c76.74-10.74,136-76.8,136-156.46a157.15,157.15,0,0,0-14-64.92l44-44V112a22,22,0,0,0,44,0V38A22,22,0,0,0,426,16ZM216,314A114,114,0,1,1,330,200,114.13,114.13,0,0,1,216,314Z"/></svg>
